src/assets/svg/additional/7-linkedin.svg

<svg width="27" height="27" viewBox="0 0 27 27" fill="none" xmlns="http://www.w3.org/2000/svg">
<g opacity="0.8">
<g clip-path="url(#clip0_114_461)">
<rect y="0.00012207" width="27" height="27" rx="2" fill="#E2E2E2"/>
<path fill-rule="evenodd" clip-rule="evenodd" d="M14.6216 12.1264V12.0869C14.6135 12.1001 14.6023 12.1134 14.5953 12.1264H14.6216Z" fill="#161414"/>
<path fill-rule="evenodd" clip-rule="evenodd" d="M0 0.00012207V27.0001H27V0.00012207H0ZM8.39801 22.431H4.39216V10.3792H8.39801V22.431ZM6.39508 8.73424H6.36862C5.02485 8.73424 4.15385 7.80846 4.15385 6.65132C4.15385 5.46878 5.05031 4.56923 6.42131 4.56923C7.79262 4.56923 8.63531 5.46878 8.66154 6.65132C8.66154 7.80846 7.79262 8.73424 6.39508 8.73424ZM22.8462 22.431H18.8392V15.9832C18.8392 14.3638 18.2603 13.2583 16.8101 13.2583C15.7025 13.2583 15.0444 14.0026 14.7545 14.7236C14.6491 14.9811 14.6215 15.3391 14.6215 15.7003V22.4311H10.6138C10.6138 22.4311 10.6676 11.5098 10.6138 10.3792H14.6215V12.087C15.154 11.2677 16.1042 10.0963 18.2328 10.0963C20.8697 10.0963 22.8462 11.8183 22.8462 15.5199V22.431Z" fill="#161414"/>
</g>
</g>
<defs>
<clipPath id="clip0_114_461">
<rect y="0.00012207" width="27" height="27" rx="2" fill="white"/>
</clipPath>
</defs>
</svg>

<svg xmlns="http://www.w3.org/2000/svg" width="27" height="27" fill="none"><g clip-path="url(#a)" opacity=".8"><rect width="27" height="27" fill="#E2E2E2" rx="2"/><path fill="#161414" fill-rule="evenodd" d="M14.622 12.126v-.04c-.008.014-.02.027-.027.04h.027Z" clip-rule="evenodd"/><path fill="#161414" fill-rule="evenodd" d="M0 0v27h27V0H0Zm8.398 22.431H4.392V10.379h4.006v12.052ZM6.395 8.734H6.37c-1.344 0-2.215-.926-2.215-2.083 0-1.182.896-2.082 2.267-2.082 1.372 0 2.214.9 2.24 2.082 0 1.157-.868 2.083-2.266 2.083Zm16.451 13.697H18.84v-6.448c0-1.62-.579-2.725-2.029-2.725-1.107 0-1.766.745-2.055 1.466-.106.257-.134.615-.134.976v6.731h-4.007s.054-10.921 0-12.052h4.007v1.708c.533-.82 1.483-1.99 3.612-1.99 2.637 0 4.613 1.721 4.613 5.423v6.911Z" clip-rule="evenodd"/></g><defs><clipPath id="a"><rect width="27" height="27" fill="#fff" rx="2"/></clipPath></defs></svg>
